X:1
T:Beatus homo
T:Antoine de Fevin
T:Source : Bicinia---Tomus II---Wittemberg---G.Rhau---1545. Editor : André Vierendeels  (23/06/17).
T:Notes : Original clefs  : C2 , F3 Original note values have been halved Square brackets undicate ligatures Dotted brackets indicate black notes m 20 slightly adapted by the editor
T:Beatus homo
T:©
T:©
C:Antoine de Fevin
Z:©
%%score [ 1 2 ]
L:1/8
Q:1/4=120
M:2/2
K:F
V:1 treble nm="Alto" snm="A"
V:2 treble-8 nm="Tenor" snm="T"
V:1
 z4 D4- | D4 A,4 | C6 B,A, | G,2 A,2 B,2 C2 | D6 CB, | A,4 C4 | B,4 A,4 | z4 D4 | F6 ED | %9
w: Be-|* a-||* * * tus|ho- * *||* mo,|quem|tu _ _|
 C2 D2 E2 F2 | G6 FE | D4 F4 | E2 D4 CB, | A,2 G,2 B,2 B,2 | A,8- | A,8 | z2 D4 C2 | D3 E FG E2- | %18
w: _ _ e- ru-|di- * *|* e-||ris Do- * mi-|ne,|_|et de-|le- * * * *|
 ED D4 C2 | D8 | z4 D4- | D2 D2 D4 | C4 B,3 C | DE F2 G2 F2- | FE DC B,2 B2- | B2 AG AGFE | %26
w: * * ge tu|a,|do-|* cu- e-||* * * ris e-|||
 DCB,A, G,2 D2- | DEFG E2 D2- | D2 G4 F2 | G8 |] %30
w: |||um.|
V:2
 G8 | D4 F4- | F2 ED C2 D2 | E2 F2 G4- | G2 FE D4 | F4 E4 | D4 z4 | G4 B4- | B2 AG F2 G2 | %9
w: Be-|a- *||* tus ho-|||mo,|quem tu|_ _ _ _ e-|
 A2 B2 c4- | c2 BA G4 | B4 A4 | G2 B4 AG | F2 G2 D4- | D4 z2 D2- | D2 C2 D3 E | F2 G2 A4 | B4 A4 | %18
w: ru- di- e-|||ris Do- * *|* mi- ne,|_ et|_ de- le- *|* ge tu-||
 G2 F2 E4 | D4 z2 G2- | GF F3 EDC | B,2 F2 G2 B2- | B2 A2 B4- | B4 z4 | d6 d2 |"^#" d4 c4 | %26
w: |a, do-|* * cu- * * *|* * * e-|* * ris,|_|do- cu-|e- ris|
 B2 d3 cBA | G2 F2 G3 A | B2 c2 A4 | G8 |] %30
w: e- * * * *|||um.|

